!!!COM: Vivaldi, Antonio Lucio
!!!CDT: 1678/03/04-1741/08/28
!!!OPR: 12 Sonatas for Violin and Basso continuo
!!!OTL: Sonata in A major, op. @{OPS}, no. @{ONM} (@{SCT})
!!!OPS: 2
!!!ONM: 2
!!!OMV: 1. Preludio à Capriccio
!!!SCT: RV 31
!!!SCA: Antonio Vivaldi: Thematisch-systematisches Verzeichnis seiner Werke (Ryom-Verzeichnis)
!!!OMD: Presto
!!!key: A
**kern	**fb	**kern
*part2	*	*part1
*staff2	*	*staff1
*ICklav	*	*ICstr
*Icemba	*	*Ivioln
*I"Basso continuo	*	*I"Violino
*I'bc	*	*I'v
*clefF4	*	*clefG2
*k[f#c#g#]	*	*k[f#c#g#]
*A:	*	*A:
*M3/4	*	*M3/4
*MM126	*	*MM126
16r	.	16e/
=1	=1	=1
[2.AA/	.	16e/LL
.	.	16c#y/
.	.	16c#y/
.	.	16e/JJ
.	.	16e/LL
.	.	16c#y/
.	.	16c#y/
.	.	16e/JJ
.	.	16e/LL
.	.	16c#y/
.	.	16c#y/
.	.	16a/JJ
=2	=2	=2
2.AA/_	.	16a/LL
.	.	16e/
.	.	16e/
.	.	16a/JJ
.	.	16a/LL
.	.	16e/
.	.	16e/
.	.	16a/JJ
.	.	16a/LL
.	.	16e/
.	.	16e/
.	.	16cc#y/JJ
=3	=3	=3
2.AA/_	.	16cc#y\LL
.	.	16a\
.	.	16a\
.	.	16cc#y\JJ
.	.	16cc#y\LL
.	.	16a\
.	.	16a\
.	.	16cc#y\JJ
.	.	16cc#y\LL
.	.	16a\
.	.	16a\
.	.	16ee\JJ
=4	=4	=4
2.AA/_	.	16ee\LL
.	.	16cc#y\
.	.	16cc#y\
.	.	16ee\JJ
.	.	16ee\LL
.	.	16cc#y\
.	.	16cc#y\
.	.	16ee\JJ
.	.	16ee\LL
.	.	16cc#y\
.	.	16cc#y\
.	.	16aa\JJ
!!LO:LB:g=original
=5	=5	=5
2.AA/_	.	16aa\LL
.	.	16ee\
.	.	16ee\
.	.	16cc#y\JJ
.	.	16cc#y/LL
.	.	16a/
.	.	16a/
.	.	16e/JJ
.	.	16e/LL
.	.	16c#y/
.	.	16c#y/
.	.	16A/JJ
=6	=6	=6
2.AA/_	.	(8A/L
.	.	8c#y/
.	.	8e/
.	.	8a/
.	.	8cc#y/
.	.	8ee/J)
=7||	=7||	=7||
!!!OMD: Adagio
*M4/4	*	*M4/4
*met(c)	*	*met(c)
*MM52	*	*MM52
2AA/]	6 4#| 2	4.dd#X\t
.	.	8ee\
2GG#y/;	6	2ee\;
=||	=||	=||
!!!OMD: Presto
*M3/4	*	*M3/4
*MM126	*	*MM126
16r	.	16b\
=8	=8	=8
[2.E\	.	16b/LL
.	.	16g#y/
.	.	16g#y/
.	.	16b/JJ
.	.	16b/LL
.	.	16g#y/
.	.	16g#y/
.	.	16b/JJ
.	.	16b\LL
.	.	16g#y\
.	.	16g#y\
.	.	16ee\JJ
=9	=9	=9
2.E\_	.	16ee\LL
.	.	16b\
.	.	16b\
.	.	16ee\JJ
.	.	16ee\LL
.	.	16b\
.	.	16b\
.	.	16ee\JJ
.	.	16ee\LL
.	.	16b\
.	.	16b\
.	.	16gg#y\JJ
!!LO:LB:g=original
=10	=10	=10
2.E\_	.	16gg#y\LL
.	.	16ee\
.	.	16ee\
.	.	16gg#y\JJ
.	.	16gg#y\LL
.	.	16ee\
.	.	16ee\
.	.	16gg#y\JJ
.	.	16gg#y\LL
.	.	16ee\
.	.	16ee\
.	.	16bb\JJ
=11	=11	=11
2.E\_	.	16bb\LL
.	.	16gg#y\
.	.	16gg#y\
.	.	16bb\JJ
.	.	16bb\LL
.	.	16gg#y\
.	.	16gg#y\
.	.	16bb\JJ
.	.	16bb\LL
.	.	16gg#y\
.	.	16gg#y\
.	.	16eee\JJ
=12	=12	=12
2.E\_	.	16eee\LL
.	.	16bb\
.	.	16bb\
.	.	16gg#y\JJ
.	.	16gg#y\LL
.	.	16ee\
.	.	16ee\
.	.	16b\JJ
.	.	16b/LL
.	.	16g#y/
.	.	16g#y/
.	.	16e/JJ
=13	=13	=13
2.E\_	.	(8e\L
.	.	8g#y\
.	.	8b\
.	.	8ee\
.	.	8gg#y\
.	.	8bb\J)
=14||	=14||	=14||
!!!OMD: Adagio
*M4/4	*	*M4/4
*met(c)	*	*met(c)
*MM52	*	*MM52
2E\]	7 5	4.dd\
.	.	8cc#y\
2AA/;	.	2cc#y\;
!!LO:LB:g=original
=15||	=15||	=15||
!!!OMD: Presto
*MM126	*	*MM126
16A\LL	.	1r
16e\	.	.
16A\	.	.
16e\JJ	.	.
16A\LL	.	.
16e\	.	.
16A\	.	.
16e\JJ	.	.
16G#y\LL	6	.
16e\	.	.
16G#y\	.	.
16e\JJ	.	.
16G#y\LL	.	.
16e\	.	.
16G#y\	.	.
16e\JJ	.	.
=16	=16	=16
16A\LL	.	4.aa\
16e\	.	.
16A\	.	.
16e\JJ	.	.
16A\LL	.	.
16e\	.	.
16A\	.	16gg#y\LL
16e\JJ	.	16aa\JJ
16G#y\LL	6	8bb\L
16e\	.	.
16G#y\	.	16ee\L
16e\JJ	.	16ff#y\JJ
16G#y\LL	.	8.ee\L
16e\	.	.
16G#y\	.	.
16e\JJ	.	16dd\Jk
=17	=17	=17
16A\LL	.	8cc#y\L
16e\	.	.
16A\	.	16b\L
16e\JJ	.	16a\JJ
16A\LL	.	[4aa\
16e\	.	.
16A\	.	.
16e\JJ	.	.
16B\LL	7	8aa\L]
16e\	.	.
16B\	.	(16gg#y\L
16e\JJ	.	16ff#y\JJ)
16B\LL	6	[4gg#y\
16e\	.	.
16B\	.	.
16e\JJ	.	.
=18	=18	=18
16A\LL	7	8gg#y\L]
16c#y\	.	.
16A\	6	(16aa\L
16c#y\JJ	.	16gg#y\JJ)
16d\LL	.	[4ff#y\
16f#y\	.	.
16d\	.	.
16f#y\JJ	.	.
16G#y\LL	.	8ff#y\L]
16B\	.	.
16G#y\	.	(16bb\L
16B\JJ	.	16gg#y\JJ)
16c#y\LL	6	[4ee\
16e\	.	.
16c#y\	.	.
16e\JJ	.	.
!!LO:LB:g=original
=19	=19	=19
16F#y\LL	7	8ee\L]
16A\	.	.
16F#y\	.	(16aa\L
16A\JJ	.	16ee\JJ)
16BB\LL	#	8.dd#X\Lt
16F#y\	.	.
16BB\	.	.
16F#y\JJ	.	16ee\Jk
16E\LL	.	4.ee\
16B\	.	.
16E\	.	.
16B\JJ	.	.
16E\LL	.	.
16B\	.	.
16E\	.	16dd#X\LL
16B\JJ	.	16ee\JJ
=20	=20	=20
16D#X\LL	6	8ff#y\L
16B\	.	.
16D#y\	.	16b\L
16B\JJ	.	16cc#y\JJ
16D#X\LL	.	8.b/L
16B\	.	.
16D#y\	.	.
16B\JJ	.	16a/Jk
16E\LL	.	16g#y/LL
16B\	.	16f#y/J
16E\	.	8e/J
16B\JJ	.	.
16E\LL	.	4r
16B\	.	.
16E\	.	.
16B\JJ	.	.
=21	=21	=21
16E#X\LL	6	4cc#y\
16c#y\	.	.
16E#y\	.	.
16c#y\JJ	.	.
16E#X\LL	.	8.bb\L
16c#y\	.	.
16E#y\	.	.
16c#y\JJ	.	16bb\Jk
16F#y\LL	.	(8.bb\L
16c#y\	.	.
16F#y\	.	.
16c#y\JJ	.	16gg#y\Jk)
16F#y\LL	.	4aa\
16c#y\	.	.
16F#y\	.	.
16c#y\JJ	.	.
!!LO:LB:g=original
=22	=22	=22
16D#X\LL	6	4b\
16B\	.	.
16D#y\	.	.
16B\JJ	.	.
16D#X\LL	.	8.aa\L
16B\	.	.
16D#y\	.	.
16B\JJ	.	16aa\Jk
16E\LL	.	(8.aa\L
16B\	.	.
16E\	.	.
16B\JJ	.	16ff#y\Jk)
16E\LL	.	4gg#y\
16B\	.	.
16En\	.	.
16B\JJ	.	.
=23	=23	=23
16C#y\LL	6	8r
16A\	.	.
16C#y\	.	8a/
16A\JJ	.	.
16C#y\LL	.	(16ggn\LL
16A\	.	16ff#y\)
16C#y\	.	(16gg\
16A\JJ	.	16aa\JJ)
16D\LL	6	8ff#y\L
16A\	.	.
16D\	.	8b\J
16B\JJ	.	.
16D#X\LL	6	(16aa\LL
16B\	.	16gg#y\)
16D#y\	.	(16aa\
16B\JJ	.	16bb\JJ)
=24	=24	=24
16E\LL	6	8gg#y\L
16B\	.	.
16E\	.	8cc#y\J
16c#y\JJ	.	.
16E#X\LL	6	(16bb\LL
16c#y\	.	16aa\)
16E#y\	.	(16bb\
16c#y\JJ	.	16ccc#y\JJ)
16F#y\LL	6	8aa\L
16c#y\	.	.
16F#y\	.	8dd\J
16d\JJ	.	.
16F#y\LL	.	(16dd\LL
16d\	.	16cc#y\)
16F#y\	.	(16dd\
16d\JJ	.	16bb\JJ)
=25	=25	=25
16E\LL	7	8gg#y\L
16d\	.	.
16E\	.	(16ff#y\L
16d\JJ	.	16ee\JJ)
16E\LL	6 4	[4aa\
16c#y\	.	.
16E\	.	.
16c#y\JJ	.	.
16E\LL	5 4	16aa\LL]
16B\	.	16gg#y\
16E\	.	16aa\
16B\JJ	.	16bb\JJ
16E\LL	X 3	8.gg#y\Lt
16B\	.	.
16E\	.	.
16B\JJ	.	16aa\Jk
!!LO:LB:g=original
=26	=26	=26
16AA\LL	.	8aa\L
16A\	.	.
16AA\	.	8a\J
16A\JJ	.	.
16C#y\LL	6 5nr	8ggn\L
16A\	.	.
16C#y\	.	(16a\L
16A\JJ	.	16ggn\JJ)
16D\LL	4nr	(8gg\LT
16A\	.	.
16D\	3	8ff#y\J)
16B\JJ	.	.
16D#X\LL	6 5	8aa\L
16B\	.	.
16D#y\	.	(16b\L
16B\JJ	.	16aa\JJ)
=27	=27	=27
16E\LL	4	(8aa\LT
16B\	.	.
16E\	3	8gg#y\J)
16c#y\JJ	.	.
16E#X\LL	6 5	8bb\L
16c#y\	.	.
16E#y\	.	(16cc#y\L
16c#y\JJ	.	16bb\JJ)
16F#y\LL	6 4	(8bb\LT
16c#y\	.	.
16F#y\	.	8aa\J)
16d\JJ	.	.
16F#y\LL	6	8dd\L
16d\	.	.
16F#y\	.	(16ff#y\L
16d\JJ	.	16bb\JJ)
=28	=28	=28
16E\LL	7	8gg#y\L
16d\	.	.
16E\	.	8ee\J
16d\JJ	.	.
16E\LL	6 4	8aa\L
16c#y\	.	.
16E\	.	(16gg#y\L
16c#y\JJ	.	16ff#y\JJ)
16E\LL	5 4	8ee\L
16B\	.	.
16E\	.	(16dd\L
16A\JJ	.	16cc#y\JJ)
16E\LL	X 3	8.b/LT
16G#y\	.	.
16E\	.	.
16G#y\JJ	.	16a/Jk
=29	=29	=29
1AA/;	.	1a/;
==	==	==
*-	*-	*-
!!!SMS: RV 31 / Estienne Roger, Amsterdam [facs.]
!!!ENC: Fran Bennion; rev. E Correia (4/21)
!!!END: 2004/11/16
!!!ONB: Converted from MuseData with musedata2hum on Sat May 11 12:07:51 2024
!!!YEM: (C) 2004, 2004 Center for Computer Assisted Research in the Humanities.
!!!system-decoration: [(s1,s2)]
!!!URL-info: https://wiki.ccarh.org/wiki/MuseData:_Antonio_Vivaldi#Op._2:_Sonate_a_violino_e_basso_per_il_cembalo
!!!URL-pdf: https://pdf.musedata.org/vivaldi-op02-no02.pdf#page=1 MuseData edition
!!!URL-pdf: http://conquest.imslp.info/files/imglnks/usimg/b/b7/IMSLP99075-PMLP183164-Vivaldi_-_Sonatas_Op2.pdf#page=5 Estienne Roger Amsterdam: Estienne Roger, No.2, n.d.[1711].
!!!URL-youtube: https://www.youtube.com/watch?v=SiijZmW9jKM&t=0s L'Arte dell'Arco
!!!title: @{OTL}, mov. @{OMV}
!!!filter-chint: chint -mid
!!!EEV: 2024/05/11
!!!source-file: https://bitbucket.org/musedata/vivaldi/src/master/roger/op2/no02/stage2/01/01
!!!source-file: https://bitbucket.org/musedata/vivaldi/src/master/roger/op2/no02/stage2/01/02
